/* XPM */
static char * amazing_xpm[] = {
"900 75 2 1",
"  c #000000",
"X c #D2042D",
"               XXXXXXXXXXXXXXXXXXXXXXXXXXXXXXXXXXXXXXXXXXXXX                                                                                                                        XXXXXXXXXXXXXXX                                             XXXXXXXXXXXXXXX                              XXXXXXXXXXXXXXXXXXXXXXXXXXXXXXXXXXXXXXXXXXXXX                              XXXXXXXXXXXXXXXXXXXXXXXXXXXXXXXXXXXXXXXXXXXXXXXXXXXXXXXXXXXXXXXXXXXXXXXXXXX               XXXXXXXXXXXXXXXXXXXXXXXXXXXXXXXXXXXXXXXXXXXXXXXXXXXXXXXXXXXXXXXXXXXXXXXXXXX                                                                                                         XXXXXXXXXXXXXXXXXXXXXXXXXXXXXXXXXXXXXXXXXXXXXXXXXXXXXXXXXXXXXXXXXXXXXXXXXXX               XXXXXXXXXXXXXXX                                             XXXXXXXXXXXXXXX               XXXXXXXXXXXXXXXXXXXXXXXXXXXXXXXXXXXXXXXXXXXXXXXXXXXXXXXXXXXXXXXXXXXXXXXXXXX               ",
"               XXXXXXXXXXXXXXXXXXXXXXXXXXXXXXXXXXXXXXXXXXXXX                                                                                                                        XXXXXXXXXXXXXXX                                             XXXXXXXXXXXXXXX                              XXXXXXXXXXXXXXXXXXXXXXXXXXXXXXXXXXXXXXXXXXXXX                              XXXXXXXXXXXXXXXXXXXXXXXXXXXXXXXXXXXXXXXXXXXXXXXXXXXXXXXXXXXXXXXXXXXXXXXXXXX               XXXXXXXXXXXXXXXXXXXXXXXXXXXXXXXXXXXXXXXXXXXXXXXXXXXXXXXXXXXXXXXXXXXXXXXXXXX                                                                                                         XXXXXXXXXXXXXXXXXXXXXXXXXXXXXXXXXXXXXXXXXXXXXXXXXXXXXXXXXXXXXXXXXXXXXXXXXXX               XXXXXXXXXXXXXXX                                             XXXXXXXXXXXXXXX               XXXXXXXXXXXXXXXXXXXXXXXXXXXXXXXXXXXXXXXXXXXXXXXXXXXXXXXXXXXXXXXXXXXXXXXXXXX               ",
"               XXXXXXXXXXXXXXXXXXXXXXXXXXXXXXXXXXXXXXXXXXXXX                                                                                                                        XXXXXXXXXXXXXXX                                             XXXXXXXXXXXXXXX                              XXXXXXXXXXXXXXXXXXXXXXXXXXXXXXXXXXXXXXXXXXXXX                              XXXXXXXXXXXXXXXXXXXXXXXXXXXXXXXXXXXXXXXXXXXXXXXXXXXXXXXXXXXXXXXXXXXXXXXXXXX               XXXXXXXXXXXXXXXXXXXXXXXXXXXXXXXXXXXXXXXXXXXXXXXXXXXXXXXXXXXXXXXXXXXXXXXXXXX                                                                                                         XXXXXXXXXXXXXXXXXXXXXXXXXXXXXXXXXXXXXXXXXXXXXXXXXXXXXXXXXXXXXXXXXXXXXXXXXXX               XXXXXXXXXXXXXXX                                             XXXXXXXXXXXXXXX               XXXXXXXXXXXXXXXXXXXXXXXXXXXXXXXXXXXXXXXXXXXXXXXXXXXXXXXXXXXXXXXXXXXXXXXXXXX               ",
"               XXXXXXXXXXXXXXXXXXXXXXXXXXXXXXXXXXXXXXXXXXXXX                                                                                                                        XXXXXXXXXXXXXXX                                             XXXXXXXXXXXXXXX                              XXXXXXXXXXXXXXXXXXXXXXXXXXXXXXXXXXXXXXXXXXXXX                              XXXXXXXXXXXXXXXXXXXXXXXXXXXXXXXXXXXXXXXXXXXXXXXXXXXXXXXXXXXXXXXXXXXXXXXXXXX               XXXXXXXXXXXXXXXXXXXXXXXXXXXXXXXXXXXXXXXXXXXXXXXXXXXXXXXXXXXXXXXXXXXXXXXXXXX                                                                                                         XXXXXXXXXXXXXXXXXXXXXXXXXXXXXXXXXXXXXXXXXXXXXXXXXXXXXXXXXXXXXXXXXXXXXXXXXXX               XXXXXXXXXXXXXXX                                             XXXXXXXXXXXXXXX               XXXXXXXXXXXXXXXXXXXXXXXXXXXXXXXXXXXXXXXXXXXXXXXXXXXXXXXXXXXXXXXXXXXXXXXXXXX               ",
"               XXXXXXXXXXXXXXXXXXXXXXXXXXXXXXXXXXXXXXXXXXXXX                                                                                                                        XXXXXXXXXXXXXXX                                             XXXXXXXXXXXXXXX                              XXXXXXXXXXXXXXXXXXXXXXXXXXXXXXXXXXXXXXXXXXXXX                              XXXXXXXXXXXXXXXXXXXXXXXXXXXXXXXXXXXXXXXXXXXXXXXXXXXXXXXXXXXXXXXXXXXXXXXXXXX               XXXXXXXXXXXXXXXXXXXXXXXXXXXXXXXXXXXXXXXXXXXXXXXXXXXXXXXXXXXXXXXXXXXXXXXXXXX                                                                                                         XXXXXXXXXXXXXXXXXXXXXXXXXXXXXXXXXXXXXXXXXXXXXXXXXXXXXXXXXXXXXXXXXXXXXXXXXXX               XXXXXXXXXXXXXXX                                             XXXXXXXXXXXXXXX               XXXXXXXXXXXXXXXXXXXXXXXXXXXXXXXXXXXXXXXXXXXXXXXXXXXXXXXXXXXXXXXXXXXXXXXXXXX               ",
"               XXXXXXXXXXXXXXXXXXXXXXXXXXXXXXXXXXXXXXXXXXXXX                                                                                                                        XXXXXXXXXXXXXXX                                             XXXXXXXXXXXXXXX                              XXXXXXXXXXXXXXXXXXXXXXXXXXXXXXXXXXXXXXXXXXXXX                              XXXXXXXXXXXXXXXXXXXXXXXXXXXXXXXXXXXXXXXXXXXXXXXXXXXXXXXXXXXXXXXXXXXXXXXXXXX               XXXXXXXXXXXXXXXXXXXXXXXXXXXXXXXXXXXXXXXXXXXXXXXXXXXXXXXXXXXXXXXXXXXXXXXXXXX                                                                                                         XXXXXXXXXXXXXXXXXXXXXXXXXXXXXXXXXXXXXXXXXXXXXXXXXXXXXXXXXXXXXXXXXXXXXXXXXXX               XXXXXXXXXXXXXXX                                             XXXXXXXXXXXXXXX               XXXXXXXXXXXXXXXXXXXXXXXXXXXXXXXXXXXXXXXXXXXXXXXXXXXXXXXXXXXXXXXXXXXXXXXXXXX               ",
"               XXXXXXXXXXXXXXXXXXXXXXXXXXXXXXXXXXXXXXXXXXXXX                                                                                                                        XXXXXXXXXXXXXXX                                             XXXXXXXXXXXXXXX                              XXXXXXXXXXXXXXXXXXXXXXXXXXXXXXXXXXXXXXXXXXXXX                              XXXXXXXXXXXXXXXXXXXXXXXXXXXXXXXXXXXXXXXXXXXXXXXXXXXXXXXXXXXXXXXXXXXXXXXXXXX               XXXXXXXXXXXXXXXXXXXXXXXXXXXXXXXXXXXXXXXXXXXXXXXXXXXXXXXXXXXXXXXXXXXXXXXXXXX                                                                                                         XXXXXXXXXXXXXXXXXXXXXXXXXXXXXXXXXXXXXXXXXXXXXXXXXXXXXXXXXXXXXXXXXXXXXXXXXXX               XXXXXXXXXXXXXXX                                             XXXXXXXXXXXXXXX               XXXXXXXXXXXXXXXXXXXXXXXXXXXXXXXXXXXXXXXXXXXXXXXXXXXXXXXXXXXXXXXXXXXXXXXXXXX               ",
"               XXXXXXXXXXXXXXXXXXXXXXXXXXXXXXXXXXXXXXXXXXXXX                                                                                                                        XXXXXXXXXXXXXXX                                             XXXXXXXXXXXXXXX                              XXXXXXXXXXXXXXXXXXXXXXXXXXXXXXXXXXXXXXXXXXXXX                              XXXXXXXXXXXXXXXXXXXXXXXXXXXXXXXXXXXXXXXXXXXXXXXXXXXXXXXXXXXXXXXXXXXXXXXXXXX               XXXXXXXXXXXXXXXXXXXXXXXXXXXXXXXXXXXXXXXXXXXXXXXXXXXXXXXXXXXXXXXXXXXXXXXXXXX                                                                                                         XXXXXXXXXXXXXXXXXXXXXXXXXXXXXXXXXXXXXXXXXXXXXXXXXXXXXXXXXXXXXXXXXXXXXXXXXXX               XXXXXXXXXXXXXXX                                             XXXXXXXXXXXXXXX               XXXXXXXXXXXXXXXXXXXXXXXXXXXXXXXXXXXXXXXXXXXXXXXXXXXXXXXXXXXXXXXXXXXXXXXXXXX               ",
"               XXXXXXXXXXXXXXXXXXXXXXXXXXXXXXXXXXXXXXXXXXXXX                                                                                                                        XXXXXXXXXXXXXXX                                             XXXXXXXXXXXXXXX                              XXXXXXXXXXXXXXXXXXXXXXXXXXXXXXXXXXXXXXXXXXXXX                              XXXXXXXXXXXXXXXXXXXXXXXXXXXXXXXXXXXXXXXXXXXXXXXXXXXXXXXXXXXXXXXXXXXXXXXXXXX               XXXXXXXXXXXXXXXXXXXXXXXXXXXXXXXXXXXXXXXXXXXXXXXXXXXXXXXXXXXXXXXXXXXXXXXXXXX                                                                                                         XXXXXXXXXXXXXXXXXXXXXXXXXXXXXXXXXXXXXXXXXXXXXXXXXXXXXXXXXXXXXXXXXXXXXXXXXXX               XXXXXXXXXXXXXXX                                             XXXXXXXXXXXXXXX               XXXXXXXXXXXXXXXXXXXXXXXXXXXXXXXXXXXXXXXXXXXXXXXXXXXXXXXXXXXXXXXXXXXXXXXXXXX               ",
"               XXXXXXXXXXXXXXXXXXXXXXXXXXXXXXXXXXXXXXXXXXXXX                                                                                                                        XXXXXXXXXXXXXXX                                             XXXXXXXXXXXXXXX                              XXXXXXXXXXXXXXXXXXXXXXXXXXXXXXXXXXXXXXXXXXXXX                              XXXXXXXXXXXXXXXXXXXXXXXXXXXXXXXXXXXXXXXXXXXXXXXXXXXXXXXXXXXXXXXXXXXXXXXXXXX               XXXXXXXXXXXXXXXXXXXXXXXXXXXXXXXXXXXXXXXXXXXXXXXXXXXXXXXXXXXXXXXXXXXXXXXXXXX                                                                                                         XXXXXXXXXXXXXXXXXXXXXXXXXXXXXXXXXXXXXXXXXXXXXXXXXXXXXXXXXXXXXXXXXXXXXXXXXXX               XXXXXXXXXXXXXXX                                             XXXXXXXXXXXXXXX               XXXXXXXXXXXXXXXXXXXXXXXXXXXXXXXXXXXXXXXXXXXXXXXXXXXXXXXXXXXXXXXXXXXXXXXXXXX               ",
"               XXXXXXXXXXXXXXXXXXXXXXXXXXXXXXXXXXXXXXXXXXXXX                                                                                                                        XXXXXXXXXXXXXXX                                             XXXXXXXXXXXXXXX                              XXXXXXXXXXXXXXXXXXXXXXXXXXXXXXXXXXXXXXXXXXXXX                              XXXXXXXXXXXXXXXXXXXXXXXXXXXXXXXXXXXXXXXXXXXXXXXXXXXXXXXXXXXXXXXXXXXXXXXXXXX               XXXXXXXXXXXXXXXXXXXXXXXXXXXXXXXXXXXXXXXXXXXXXXXXXXXXXXXXXXXXXXXXXXXXXXXXXXX                                                                                                         XXXXXXXXXXXXXXXXXXXXXXXXXXXXXXXXXXXXXXXXXXXXXXXXXXXXXXXXXXXXXXXXXXXXXXXXXXX               XXXXXXXXXXXXXXX                                             XXXXXXXXXXXXXXX               XXXXXXXXXXXXXXXXXXXXXXXXXXXXXXXXXXXXXXXXXXXXXXXXXXXXXXXXXXXXXXXXXXXXXXXXXXX               ",
"               XXXXXXXXXXXXXXXXXXXXXXXXXXXXXXXXXXXXXXXXXXXXX                                                                                                                        XXXXXXXXXXXXXXX                                             XXXXXXXXXXXXXXX                              XXXXXXXXXXXXXXXXXXXXXXXXXXXXXXXXXXXXXXXXXXXXX                              XXXXXXXXXXXXXXXXXXXXXXXXXXXXXXXXXXXXXXXXXXXXXXXXXXXXXXXXXXXXXXXXXXXXXXXXXXX               XXXXXXXXXXXXXXXXXXXXXXXXXXXXXXXXXXXXXXXXXXXXXXXXXXXXXXXXXXXXXXXXXXXXXXXXXXX                                                                                                         XXXXXXXXXXXXXXXXXXXXXXXXXXXXXXXXXXXXXXXXXXXXXXXXXXXXXXXXXXXXXXXXXXXXXXXXXXX               XXXXXXXXXXXXXXX                                             XXXXXXXXXXXXXXX               XXXXXXXXXXXXXXXXXXXXXXXXXXXXXXXXXXXXXXXXXXXXXXXXXXXXXXXXXXXXXXXXXXXXXXXXXXX               ",
"               XXXXXXXXXXXXXXXXXXXXXXXXXXXXXXXXXXXXXXXXXXXXX                                                                                                                        XXXXXXXXXXXXXXX                                             XXXXXXXXXXXXXXX                              XXXXXXXXXXXXXXXXXXXXXXXXXXXXXXXXXXXXXXXXXXXXX                              XXXXXXXXXXXXXXXXXXXXXXXXXXXXXXXXXXXXXXXXXXXXXXXXXXXXXXXXXXXXXXXXXXXXXXXXXXX               XXXXXXXXXXXXXXXXXXXXXXXXXXXXXXXXXXXXXXXXXXXXXXXXXXXXXXXXXXXXXXXXXXXXXXXXXXX                                                                                                         XXXXXXXXXXXXXXXXXXXXXXXXXXXXXXXXXXXXXXXXXXXXXXXXXXXXXXXXXXXXXXXXXXXXXXXXXXX               XXXXXXXXXXXXXXX                                             XXXXXXXXXXXXXXX               XXXXXXXXXXXXXXXXXXXXXXXXXXXXXXXXXXXXXXXXXXXXXXXXXXXXXXXXXXXXXXXXXXXXXXXXXXX               ",
"               XXXXXXXXXXXXXXXXXXXXXXXXXXXXXXXXXXXXXXXXXXXXX                                                                                                                        XXXXXXXXXXXXXXX                                             XXXXXXXXXXXXXXX                              XXXXXXXXXXXXXXXXXXXXXXXXXXXXXXXXXXXXXXXXXXXXX                              XXXXXXXXXXXXXXXXXXXXXXXXXXXXXXXXXXXXXXXXXXXXXXXXXXXXXXXXXXXXXXXXXXXXXXXXXXX               XXXXXXXXXXXXXXXXXXXXXXXXXXXXXXXXXXXXXXXXXXXXXXXXXXXXXXXXXXXXXXXXXXXXXXXXXXX                                                                                                         XXXXXXXXXXXXXXXXXXXXXXXXXXXXXXXXXXXXXXXXXXXXXXXXXXXXXXXXXXXXXXXXXXXXXXXXXXX               XXXXXXXXXXXXXXX                                             XXXXXXXXXXXXXXX               XXXXXXXXXXXXXXXXXXXXXXXXXXXXXXXXXXXXXXXXXXXXXXXXXXXXXXXXXXXXXXXXXXXXXXXXXXX               ",
"               XXXXXXXXXXXXXXXXXXXXXXXXXXXXXXXXXXXXXXXXXXXXX                                                                                                                        XXXXXXXXXXXXXXX                                             XXXXXXXXXXXXXXX                              XXXXXXXXXXXXXXXXXXXXXXXXXXXXXXXXXXXXXXXXXXXXX                              XXXXXXXXXXXXXXXXXXXXXXXXXXXXXXXXXXXXXXXXXXXXXXXXXXXXXXXXXXXXXXXXXXXXXXXXXXX               XXXXXXXXXXXXXXXXXXXXXXXXXXXXXXXXXXXXXXXXXXXXXXXXXXXXXXXXXXXXXXXXXXXXXXXXXXX                                                                                                         XXXXXXXXXXXXXXXXXXXXXXXXXXXXXXXXXXXXXXXXXXXXXXXXXXXXXXXXXXXXXXXXXXXXXXXXXXX               XXXXXXXXXXXXXXX                                             XXXXXXXXXXXXXXX               XXXXXXXXXXXXXXXXXXXXXXXXXXXXXXXXXXXXXXXXXXXXXXXXXXXXXXXXXXXXXXXXXXXXXXXXXXX               ",
"XXXXXXXXXXXXXXX                                             XXXXXXXXXXXXXXX                                                                                                         XXXXXXXXXXXXXXXXXXXXXXXXXXXXXX               XXXXXXXXXXXXXXXXXXXXXXXXXXXXXX               XXXXXXXXXXXXXXX                                             XXXXXXXXXXXXXXX                                                            XXXXXXXXXXXXXXX                              XXXXXXXXXXXXXXX                                                                                                                                                                                                   XXXXXXXXXXXXXXX                                             XXXXXXXXXXXXXXXXXXXXXXXXXXXXXX                              XXXXXXXXXXXXXXX               XXXXXXXXXXXXXXX                                                                           ",
"XXXXXXXXXXXXXXX                                             XXXXXXXXXXXXXXX                                                                                                         XXXXXXXXXXXXXXXXXXXXXXXXXXXXXX               XXXXXXXXXXXXXXXXXXXXXXXXXXXXXX               XXXXXXXXXXXXXXX                                             XXXXXXXXXXXXXXX                                                            XXXXXXXXXXXXXXX                              XXXXXXXXXXXXXXX                                                                                                                                                                                                   XXXXXXXXXXXXXXX                                             XXXXXXXXXXXXXXXXXXXXXXXXXXXXXX                              XXXXXXXXXXXXXXX               XXXXXXXXXXXXXXX                                                                           ",
"XXXXXXXXXXXXXXX                                             XXXXXXXXXXXXXXX                                                                                                         XXXXXXXXXXXXXXXXXXXXXXXXXXXXXX               XXXXXXXXXXXXXXXXXXXXXXXXXXXXXX               XXXXXXXXXXXXXXX                                             XXXXXXXXXXXXXXX                                                            XXXXXXXXXXXXXXX                              XXXXXXXXXXXXXXX                                                                                                                                                                                                   XXXXXXXXXXXXXXX                                             XXXXXXXXXXXXXXXXXXXXXXXXXXXXXX                              XXXXXXXXXXXXXXX               XXXXXXXXXXXXXXX                                                                           ",
"XXXXXXXXXXXXXXX                                             XXXXXXXXXXXXXXX                                                                                                         XXXXXXXXXXXXXXXXXXXXXXXXXXXXXX               XXXXXXXXXXXXXXXXXXXXXXXXXXXXXX               XXXXXXXXXXXXXXX                                             XXXXXXXXXXXXXXX                                                            XXXXXXXXXXXXXXX                              XXXXXXXXXXXXXXX                                                                                                                                                                                                   XXXXXXXXXXXXXXX                                             XXXXXXXXXXXXXXXXXXXXXXXXXXXXXX                              XXXXXXXXXXXXXXX               XXXXXXXXXXXXXXX                                                                           ",
"XXXXXXXXXXXXXXX                                             XXXXXXXXXXXXXXX                                                                                                         XXXXXXXXXXXXXXXXXXXXXXXXXXXXXX               XXXXXXXXXXXXXXXXXXXXXXXXXXXXXX               XXXXXXXXXXXXXXX                                             XXXXXXXXXXXXXXX                                                            XXXXXXXXXXXXXXX                              XXXXXXXXXXXXXXX                                                                                                                                                                                                   XXXXXXXXXXXXXXX                                             XXXXXXXXXXXXXXXXXXXXXXXXXXXXXX                              XXXXXXXXXXXXXXX               XXXXXXXXXXXXXXX                                                                           ",
"XXXXXXXXXXXXXXX                                             XXXXXXXXXXXXXXX                                                                                                         XXXXXXXXXXXXXXXXXXXXXXXXXXXXXX               XXXXXXXXXXXXXXXXXXXXXXXXXXXXXX               XXXXXXXXXXXXXXX                                             XXXXXXXXXXXXXXX                                                            XXXXXXXXXXXXXXX                              XXXXXXXXXXXXXXX                                                                                                                                                                                                   XXXXXXXXXXXXXXX                                             XXXXXXXXXXXXXXXXXXXXXXXXXXXXXX                              XXXXXXXXXXXXXXX               XXXXXXXXXXXXXXX                                                                           ",
"XXXXXXXXXXXXXXX                                             XXXXXXXXXXXXXXX                                                                                                         XXXXXXXXXXXXXXXXXXXXXXXXXXXXXX               XXXXXXXXXXXXXXXXXXXXXXXXXXXXXX               XXXXXXXXXXXXXXX                                             XXXXXXXXXXXXXXX                                                            XXXXXXXXXXXXXXX                              XXXXXXXXXXXXXXX                                                                                                                                                                                                   XXXXXXXXXXXXXXX                                             XXXXXXXXXXXXXXXXXXXXXXXXXXXXXX                              XXXXXXXXXXXXXXX               XXXXXXXXXXXXXXX                                                                           ",
"XXXXXXXXXXXXXXX                                             XXXXXXXXXXXXXXX                                                                                                         XXXXXXXXXXXXXXXXXXXXXXXXXXXXXX               XXXXXXXXXXXXXXXXXXXXXXXXXXXXXX               XXXXXXXXXXXXXXX                                             XXXXXXXXXXXXXXX                                                            XXXXXXXXXXXXXXX                              XXXXXXXXXXXXXXX                                                                                                                                                                                                   XXXXXXXXXXXXXXX                                             XXXXXXXXXXXXXXXXXXXXXXXXXXXXXX                              XXXXXXXXXXXXXXX               XXXXXXXXXXXXXXX                                                                           ",
"XXXXXXXXXXXXXXX                                             XXXXXXXXXXXXXXX                                                                                                         XXXXXXXXXXXXXXXXXXXXXXXXXXXXXX               XXXXXXXXXXXXXXXXXXXXXXXXXXXXXX               XXXXXXXXXXXXXXX                                             XXXXXXXXXXXXXXX                                                            XXXXXXXXXXXXXXX                              XXXXXXXXXXXXXXX                                                                                                                                                                                                   XXXXXXXXXXXXXXX                                             XXXXXXXXXXXXXXXXXXXXXXXXXXXXXX                              XXXXXXXXXXXXXXX               XXXXXXXXXXXXXXX                                                                           ",
"XXXXXXXXXXXXXXX                                             XXXXXXXXXXXXXXX                                                                                                         XXXXXXXXXXXXXXXXXXXXXXXXXXXXXX               XXXXXXXXXXXXXXXXXXXXXXXXXXXXXX               XXXXXXXXXXXXXXX                                             XXXXXXXXXXXXXXX                                                            XXXXXXXXXXXXXXX                              XXXXXXXXXXXXXXX                                                                                                                                                                                                   XXXXXXXXXXXXXXX                                             XXXXXXXXXXXXXXXXXXXXXXXXXXXXXX                              XXXXXXXXXXXXXXX               XXXXXXXXXXXXXXX                                                                           ",
"XXXXXXXXXXXXXXX                                             XXXXXXXXXXXXXXX                                                                                                         XXXXXXXXXXXXXXXXXXXXXXXXXXXXXX               XXXXXXXXXXXXXXXXXXXXXXXXXXXXXX               XXXXXXXXXXXXXXX                                             XXXXXXXXXXXXXXX                                                            XXXXXXXXXXXXXXX                              XXXXXXXXXXXXXXX                                                                                                                                                                                                   XXXXXXXXXXXXXXX                                             XXXXXXXXXXXXXXXXXXXXXXXXXXXXXX                              XXXXXXXXXXXXXXX               XXXXXXXXXXXXXXX                                                                           ",
"XXXXXXXXXXXXXXX                                             XXXXXXXXXXXXXXX                                                                                                         XXXXXXXXXXXXXXXXXXXXXXXXXXXXXX               XXXXXXXXXXXXXXXXXXXXXXXXXXXXXX               XXXXXXXXXXXXXXX                                             XXXXXXXXXXXXXXX                                                            XXXXXXXXXXXXXXX                              XXXXXXXXXXXXXXX                                                                                                                                                                                                   XXXXXXXXXXXXXXX                                             XXXXXXXXXXXXXXXXXXXXXXXXXXXXXX                              XXXXXXXXXXXXXXX               XXXXXXXXXXXXXXX                                                                           ",
"XXXXXXXXXXXXXXX                                             XXXXXXXXXXXXXXX                                                                                                         XXXXXXXXXXXXXXXXXXXXXXXXXXXXXX               XXXXXXXXXXXXXXXXXXXXXXXXXXXXXX               XXXXXXXXXXXXXXX                                             XXXXXXXXXXXXXXX                                                            XXXXXXXXXXXXXXX                              XXXXXXXXXXXXXXX                                                                                                                                                                                                   XXXXXXXXXXXXXXX                                             XXXXXXXXXXXXXXXXXXXXXXXXXXXXXX                              XXXXXXXXXXXXXXX               XXXXXXXXXXXXXXX                                                                           ",
"XXXXXXXXXXXXXXX                                             XXXXXXXXXXXXXXX                                                                                                         XXXXXXXXXXXXXXXXXXXXXXXXXXXXXX               XXXXXXXXXXXXXXXXXXXXXXXXXXXXXX               XXXXXXXXXXXXXXX                                             XXXXXXXXXXXXXXX                                                            XXXXXXXXXXXXXXX                              XXXXXXXXXXXXXXX                                                                                                                                                                                                   XXXXXXXXXXXXXXX                                             XXXXXXXXXXXXXXXXXXXXXXXXXXXXXX                              XXXXXXXXXXXXXXX               XXXXXXXXXXXXXXX                                                                           ",
"XXXXXXXXXXXXXXX                                             XXXXXXXXXXXXXXX                                                                                                         XXXXXXXXXXXXXXXXXXXXXXXXXXXXXX               XXXXXXXXXXXXXXXXXXXXXXXXXXXXXX               XXXXXXXXXXXXXXX                                             XXXXXXXXXXXXXXX                                                            XXXXXXXXXXXXXXX                              XXXXXXXXXXXXXXX                                                                                                                                                                                                   XXXXXXXXXXXXXXX                                             XXXXXXXXXXXXXXXXXXXXXXXXXXXXXX                              XXXXXXXXXXXXXXX               XXXXXXXXXXXXXXX                                                                           ",
"XXXXXXXXXXXXXXXXXXXXXXXXXXXXXXXXXXXXXXXXXXXXXXXXXXXXXXXXXXXXXXXXXXXXXXXXXXX                              XXXXXXXXXXXXXXXXXXXXXXXXXXXXXXXXXXXXXXXXXXXXX                              XXXXXXXXXXXXXXX               XXXXXXXXXXXXXXX               XXXXXXXXXXXXXXX               XXXXXXXXXXXXXXXXXXXXXXXXXXXXXXXXXXXXXXXXXXXXXXXXXXXXXXXXXXXXXXXXXXXXXXXXXXX                                             XXXXXXXXXXXXXXX                                             XXXXXXXXXXXXXXXXXXXXXXXXXXXXXXXXXXXXXXXXXXXXX                                                            XXXXXXXXXXXXXXXXXXXXXXXXXXXXXXXXXXXXXXXXXXXXX                                                            XXXXXXXXXXXXXXX                                             XXXXXXXXXXXXXXX               XXXXXXXXXXXXXXX               XXXXXXXXXXXXXXX               XXXXXXXXXXXXXXX                              XXXXXXXXXXXXXXXXXXXXXXXXXXXXXX               ",
"XXXXXXXXXXXXXXXXXXXXXXXXXXXXXXXXXXXXXXXXXXXXXXXXXXXXXXXXXXXXXXXXXXXXXXXXXXX                              XXXXXXXXXXXXXXXXXXXXXXXXXXXXXXXXXXXXXXXXXXXXX                              XXXXXXXXXXXXXXX               XXXXXXXXXXXXXXX               XXXXXXXXXXXXXXX               XXXXXXXXXXXXXXXXXXXXXXXXXXXXXXXXXXXXXXXXXXXXXXXXXXXXXXXXXXXXXXXXXXXXXXXXXXX                                             XXXXXXXXXXXXXXX                                             XXXXXXXXXXXXXXXXXXXXXXXXXXXXXXXXXXXXXXXXXXXXX                                                            XXXXXXXXXXXXXXXXXXXXXXXXXXXXXXXXXXXXXXXXXXXXX                                                            XXXXXXXXXXXXXXX                                             XXXXXXXXXXXXXXX               XXXXXXXXXXXXXXX               XXXXXXXXXXXXXXX               XXXXXXXXXXXXXXX                              XXXXXXXXXXXXXXXXXXXXXXXXXXXXXX               ",
"XXXXXXXXXXXXXXXXXXXXXXXXXXXXXXXXXXXXXXXXXXXXXXXXXXXXXXXXXXXXXXXXXXXXXXXXXXX                              XXXXXXXXXXXXXXXXXXXXXXXXXXXXXXXXXXXXXXXXXXXXX                              XXXXXXXXXXXXXXX               XXXXXXXXXXXXXXX               XXXXXXXXXXXXXXX               XXXXXXXXXXXXXXXXXXXXXXXXXXXXXXXXXXXXXXXXXXXXXXXXXXXXXXXXXXXXXXXXXXXXXXXXXXX                                             XXXXXXXXXXXXXXX                                             XXXXXXXXXXXXXXXXXXXXXXXXXXXXXXXXXXXXXXXXXXXXX                                                            XXXXXXXXXXXXXXXXXXXXXXXXXXXXXXXXXXXXXXXXXXXXX                                                            XXXXXXXXXXXXXXX                                             XXXXXXXXXXXXXXX               XXXXXXXXXXXXXXX               XXXXXXXXXXXXXXX               XXXXXXXXXXXXXXX                              XXXXXXXXXXXXXXXXXXXXXXXXXXXXXX               ",
"XXXXXXXXXXXXXXXXXXXXXXXXXXXXXXXXXXXXXXXXXXXXXXXXXXXXXXXXXXXXXXXXXXXXXXXXXXX                              XXXXXXXXXXXXXXXXXXXXXXXXXXXXXXXXXXXXXXXXXXXXX                              XXXXXXXXXXXXXXX               XXXXXXXXXXXXXXX               XXXXXXXXXXXXXXX               XXXXXXXXXXXXXXXXXXXXXXXXXXXXXXXXXXXXXXXXXXXXXXXXXXXXXXXXXXXXXXXXXXXXXXXXXXX                                             XXXXXXXXXXXXXXX                                             XXXXXXXXXXXXXXXXXXXXXXXXXXXXXXXXXXXXXXXXXXXXX                                                            XXXXXXXXXXXXXXXXXXXXXXXXXXXXXXXXXXXXXXXXXXXXX                                                            XXXXXXXXXXXXXXX                                             XXXXXXXXXXXXXXX               XXXXXXXXXXXXXXX               XXXXXXXXXXXXXXX               XXXXXXXXXXXXXXX                              XXXXXXXXXXXXXXXXXXXXXXXXXXXXXX               ",
"XXXXXXXXXXXXXXXXXXXXXXXXXXXXXXXXXXXXXXXXXXXXXXXXXXXXXXXXXXXXXXXXXXXXXXXXXXX                              XXXXXXXXXXXXXXXXXXXXXXXXXXXXXXXXXXXXXXXXXXXXX                              XXXXXXXXXXXXXXX               XXXXXXXXXXXXXXX               XXXXXXXXXXXXXXX               XXXXXXXXXXXXXXXXXXXXXXXXXXXXXXXXXXXXXXXXXXXXXXXXXXXXXXXXXXXXXXXXXXXXXXXXXXX                                             XXXXXXXXXXXXXXX                                             XXXXXXXXXXXXXXXXXXXXXXXXXXXXXXXXXXXXXXXXXXXXX                                                            XXXXXXXXXXXXXXXXXXXXXXXXXXXXXXXXXXXXXXXXXXXXX                                                            XXXXXXXXXXXXXXX                                             XXXXXXXXXXXXXXX               XXXXXXXXXXXXXXX               XXXXXXXXXXXXXXX               XXXXXXXXXXXXXXX                              XXXXXXXXXXXXXXXXXXXXXXXXXXXXXX               ",
"XXXXXXXXXXXXXXXXXXXXXXXXXXXXXXXXXXXXXXXXXXXXXXXXXXXXXXXXXXXXXXXXXXXXXXXXXXX                              XXXXXXXXXXXXXXXXXXXXXXXXXXXXXXXXXXXXXXXXXXXXX                              XXXXXXXXXXXXXXX               XXXXXXXXXXXXXXX               XXXXXXXXXXXXXXX               XXXXXXXXXXXXXXXXXXXXXXXXXXXXXXXXXXXXXXXXXXXXXXXXXXXXXXXXXXXXXXXXXXXXXXXXXXX                                             XXXXXXXXXXXXXXX                                             XXXXXXXXXXXXXXXXXXXXXXXXXXXXXXXXXXXXXXXXXXXXX                                                            XXXXXXXXXXXXXXXXXXXXXXXXXXXXXXXXXXXXXXXXXXXXX                                                            XXXXXXXXXXXXXXX                                             XXXXXXXXXXXXXXX               XXXXXXXXXXXXXXX               XXXXXXXXXXXXXXX               XXXXXXXXXXXXXXX                              XXXXXXXXXXXXXXXXXXXXXXXXXXXXXX               ",
"XXXXXXXXXXXXXXXXXXXXXXXXXXXXXXXXXXXXXXXXXXXXXXXXXXXXXXXXXXXXXXXXXXXXXXXXXXX                              XXXXXXXXXXXXXXXXXXXXXXXXXXXXXXXXXXXXXXXXXXXXX                              XXXXXXXXXXXXXXX               XXXXXXXXXXXXXXX               XXXXXXXXXXXXXXX               XXXXXXXXXXXXXXXXXXXXXXXXXXXXXXXXXXXXXXXXXXXXXXXXXXXXXXXXXXXXXXXXXXXXXXXXXXX                                             XXXXXXXXXXXXXXX                                             XXXXXXXXXXXXXXXXXXXXXXXXXXXXXXXXXXXXXXXXXXXXX                                                            XXXXXXXXXXXXXXXXXXXXXXXXXXXXXXXXXXXXXXXXXXXXX                                                            XXXXXXXXXXXXXXX                                             XXXXXXXXXXXXXXX               XXXXXXXXXXXXXXX               XXXXXXXXXXXXXXX               XXXXXXXXXXXXXXX                              XXXXXXXXXXXXXXXXXXXXXXXXXXXXXX               ",
"XXXXXXXXXXXXXXXXXXXXXXXXXXXXXXXXXXXXXXXXXXXXXXXXXXXXXXXXXXXXXXXXXXXXXXXXXXX                              XXXXXXXXXXXXXXXXXXXXXXXXXXXXXXXXXXXXXXXXXXXXX                              XXXXXXXXXXXXXXX               XXXXXXXXXXXXXXX               XXXXXXXXXXXXXXX               XXXXXXXXXXXXXXXXXXXXXXXXXXXXXXXXXXXXXXXXXXXXXXXXXXXXXXXXXXXXXXXXXXXXXXXXXXX                                             XXXXXXXXXXXXXXX                                             XXXXXXXXXXXXXXXXXXXXXXXXXXXXXXXXXXXXXXXXXXXXX                                                            XXXXXXXXXXXXXXXXXXXXXXXXXXXXXXXXXXXXXXXXXXXXX                                                            XXXXXXXXXXXXXXX                                             XXXXXXXXXXXXXXX               XXXXXXXXXXXXXXX               XXXXXXXXXXXXXXX               XXXXXXXXXXXXXXX                              XXXXXXXXXXXXXXXXXXXXXXXXXXXXXX               ",
"XXXXXXXXXXXXXXXXXXXXXXXXXXXXXXXXXXXXXXXXXXXXXXXXXXXXXXXXXXXXXXXXXXXXXXXXXXX                              XXXXXXXXXXXXXXXXXXXXXXXXXXXXXXXXXXXXXXXXXXXXX                              XXXXXXXXXXXXXXX               XXXXXXXXXXXXXXX               XXXXXXXXXXXXXXX               XXXXXXXXXXXXXXXXXXXXXXXXXXXXXXXXXXXXXXXXXXXXXXXXXXXXXXXXXXXXXXXXXXXXXXXXXXX                                             XXXXXXXXXXXXXXX                                             XXXXXXXXXXXXXXXXXXXXXXXXXXXXXXXXXXXXXXXXXXXXX                                                            XXXXXXXXXXXXXXXXXXXXXXXXXXXXXXXXXXXXXXXXXXXXX                                                            XXXXXXXXXXXXXXX                                             XXXXXXXXXXXXXXX               XXXXXXXXXXXXXXX               XXXXXXXXXXXXXXX               XXXXXXXXXXXXXXX                              XXXXXXXXXXXXXXXXXXXXXXXXXXXXXX               ",
"XXXXXXXXXXXXXXXXXXXXXXXXXXXXXXXXXXXXXXXXXXXXXXXXXXXXXXXXXXXXXXXXXXXXXXXXXXX                              XXXXXXXXXXXXXXXXXXXXXXXXXXXXXXXXXXXXXXXXXXXXX                              XXXXXXXXXXXXXXX               XXXXXXXXXXXXXXX               XXXXXXXXXXXXXXX               XXXXXXXXXXXXXXXXXXXXXXXXXXXXXXXXXXXXXXXXXXXXXXXXXXXXXXXXXXXXXXXXXXXXXXXXXXX                                             XXXXXXXXXXXXXXX                                             XXXXXXXXXXXXXXXXXXXXXXXXXXXXXXXXXXXXXXXXXXXXX                                                            XXXXXXXXXXXXXXXXXXXXXXXXXXXXXXXXXXXXXXXXXXXXX                                                            XXXXXXXXXXXXXXX                                             XXXXXXXXXXXXXXX               XXXXXXXXXXXXXXX               XXXXXXXXXXXXXXX               XXXXXXXXXXXXXXX                              XXXXXXXXXXXXXXXXXXXXXXXXXXXXXX               ",
"XXXXXXXXXXXXXXXXXXXXXXXXXXXXXXXXXXXXXXXXXXXXXXXXXXXXXXXXXXXXXXXXXXXXXXXXXXX                              XXXXXXXXXXXXXXXXXXXXXXXXXXXXXXXXXXXXXXXXXXXXX                              XXXXXXXXXXXXXXX               XXXXXXXXXXXXXXX               XXXXXXXXXXXXXXX               XXXXXXXXXXXXXXXXXXXXXXXXXXXXXXXXXXXXXXXXXXXXXXXXXXXXXXXXXXXXXXXXXXXXXXXXXXX                                             XXXXXXXXXXXXXXX                                             XXXXXXXXXXXXXXXXXXXXXXXXXXXXXXXXXXXXXXXXXXXXX                                                            XXXXXXXXXXXXXXXXXXXXXXXXXXXXXXXXXXXXXXXXXXXXX                                                            XXXXXXXXXXXXXXX                                             XXXXXXXXXXXXXXX               XXXXXXXXXXXXXXX               XXXXXXXXXXXXXXX               XXXXXXXXXXXXXXX                              XXXXXXXXXXXXXXXXXXXXXXXXXXXXXX               ",
"XXXXXXXXXXXXXXXXXXXXXXXXXXXXXXXXXXXXXXXXXXXXXXXXXXXXXXXXXXXXXXXXXXXXXXXXXXX                              XXXXXXXXXXXXXXXXXXXXXXXXXXXXXXXXXXXXXXXXXXXXX                              XXXXXXXXXXXXXXX               XXXXXXXXXXXXXXX               XXXXXXXXXXXXXXX               XXXXXXXXXXXXXXXXXXXXXXXXXXXXXXXXXXXXXXXXXXXXXXXXXXXXXXXXXXXXXXXXXXXXXXXXXXX                                             XXXXXXXXXXXXXXX                                             XXXXXXXXXXXXXXXXXXXXXXXXXXXXXXXXXXXXXXXXXXXXX                                                            XXXXXXXXXXXXXXXXXXXXXXXXXXXXXXXXXXXXXXXXXXXXX                                                            XXXXXXXXXXXXXXX                                             XXXXXXXXXXXXXXX               XXXXXXXXXXXXXXX               XXXXXXXXXXXXXXX               XXXXXXXXXXXXXXX                              XXXXXXXXXXXXXXXXXXXXXXXXXXXXXX               ",
"XXXXXXXXXXXXXXXXXXXXXXXXXXXXXXXXXXXXXXXXXXXXXXXXXXXXXXXXXXXXXXXXXXXXXXXXXXX                              XXXXXXXXXXXXXXXXXXXXXXXXXXXXXXXXXXXXXXXXXXXXX                              XXXXXXXXXXXXXXX               XXXXXXXXXXXXXXX               XXXXXXXXXXXXXXX               XXXXXXXXXXXXXXXXXXXXXXXXXXXXXXXXXXXXXXXXXXXXXXXXXXXXXXXXXXXXXXXXXXXXXXXXXXX                                             XXXXXXXXXXXXXXX                                             XXXXXXXXXXXXXXXXXXXXXXXXXXXXXXXXXXXXXXXXXXXXX                                                            XXXXXXXXXXXXXXXXXXXXXXXXXXXXXXXXXXXXXXXXXXXXX                                                            XXXXXXXXXXXXXXX                                             XXXXXXXXXXXXXXX               XXXXXXXXXXXXXXX               XXXXXXXXXXXXXXX               XXXXXXXXXXXXXXX                              XXXXXXXXXXXXXXXXXXXXXXXXXXXXXX               ",
"XXXXXXXXXXXXXXXXXXXXXXXXXXXXXXXXXXXXXXXXXXXXXXXXXXXXXXXXXXXXXXXXXXXXXXXXXXX                              XXXXXXXXXXXXXXXXXXXXXXXXXXXXXXXXXXXXXXXXXXXXX                              XXXXXXXXXXXXXXX               XXXXXXXXXXXXXXX               XXXXXXXXXXXXXXX               XXXXXXXXXXXXXXXXXXXXXXXXXXXXXXXXXXXXXXXXXXXXXXXXXXXXXXXXXXXXXXXXXXXXXXXXXXX                                             XXXXXXXXXXXXXXX                                             XXXXXXXXXXXXXXXXXXXXXXXXXXXXXXXXXXXXXXXXXXXXX                                                            XXXXXXXXXXXXXXXXXXXXXXXXXXXXXXXXXXXXXXXXXXXXX                                                            XXXXXXXXXXXXXXX                                             XXXXXXXXXXXXXXX               XXXXXXXXXXXXXXX               XXXXXXXXXXXXXXX               XXXXXXXXXXXXXXX                              XXXXXXXXXXXXXXXXXXXXXXXXXXXXXX               ",
"XXXXXXXXXXXXXXXXXXXXXXXXXXXXXXXXXXXXXXXXXXXXXXXXXXXXXXXXXXXXXXXXXXXXXXXXXXX                              XXXXXXXXXXXXXXXXXXXXXXXXXXXXXXXXXXXXXXXXXXXXX                              XXXXXXXXXXXXXXX               XXXXXXXXXXXXXXX               XXXXXXXXXXXXXXX               XXXXXXXXXXXXXXXXXXXXXXXXXXXXXXXXXXXXXXXXXXXXXXXXXXXXXXXXXXXXXXXXXXXXXXXXXXX                                             XXXXXXXXXXXXXXX                                             XXXXXXXXXXXXXXXXXXXXXXXXXXXXXXXXXXXXXXXXXXXXX                                                            XXXXXXXXXXXXXXXXXXXXXXXXXXXXXXXXXXXXXXXXXXXXX                                                            XXXXXXXXXXXXXXX                                             XXXXXXXXXXXXXXX               XXXXXXXXXXXXXXX               XXXXXXXXXXXXXXX               XXXXXXXXXXXXXXX                              XXXXXXXXXXXXXXXXXXXXXXXXXXXXXX               ",
"XXXXXXXXXXXXXXX                                             XXXXXXXXXXXXXXX                                                                                                         XXXXXXXXXXXXXXX                                             XXXXXXXXXXXXXXX               XXXXXXXXXXXXXXX                                             XXXXXXXXXXXXXXX                              XXXXXXXXXXXXXXX                                                            XXXXXXXXXXXXXXX                                                                                                                                                                                                   XXXXXXXXXXXXXXX                                             XXXXXXXXXXXXXXX                              XXXXXXXXXXXXXXXXXXXXXXXXXXXXXX               XXXXXXXXXXXXXXX                                             XXXXXXXXXXXXXXX               ",
"XXXXXXXXXXXXXXX                                             XXXXXXXXXXXXXXX                                                                                                         XXXXXXXXXXXXXXX                                             XXXXXXXXXXXXXXX               XXXXXXXXXXXXXXX                                             XXXXXXXXXXXXXXX                              XXXXXXXXXXXXXXX                                                            XXXXXXXXXXXXXXX                                                                                                                                                                                                   XXXXXXXXXXXXXXX                                             XXXXXXXXXXXXXXX                              XXXXXXXXXXXXXXXXXXXXXXXXXXXXXX               XXXXXXXXXXXXXXX                                             XXXXXXXXXXXXXXX               ",
"XXXXXXXXXXXXXXX                                             XXXXXXXXXXXXXXX                                                                                                         XXXXXXXXXXXXXXX                                             XXXXXXXXXXXXXXX               XXXXXXXXXXXXXXX                                             XXXXXXXXXXXXXXX                              XXXXXXXXXXXXXXX                                                            XXXXXXXXXXXXXXX                                                                                                                                                                                                   XXXXXXXXXXXXXXX                                             XXXXXXXXXXXXXXX                              XXXXXXXXXXXXXXXXXXXXXXXXXXXXXX               XXXXXXXXXXXXXXX                                             XXXXXXXXXXXXXXX               ",
"XXXXXXXXXXXXXXX                                             XXXXXXXXXXXXXXX                                                                                                         XXXXXXXXXXXXXXX                                             XXXXXXXXXXXXXXX               XXXXXXXXXXXXXXX                                             XXXXXXXXXXXXXXX                              XXXXXXXXXXXXXXX                                                            XXXXXXXXXXXXXXX                                                                                                                                                                                                   XXXXXXXXXXXXXXX                                             XXXXXXXXXXXXXXX                              XXXXXXXXXXXXXXXXXXXXXXXXXXXXXX               XXXXXXXXXXXXXXX                                             XXXXXXXXXXXXXXX               ",
"XXXXXXXXXXXXXXX                                             XXXXXXXXXXXXXXX                                                                                                         XXXXXXXXXXXXXXX                                             XXXXXXXXXXXXXXX               XXXXXXXXXXXXXXX                                             XXXXXXXXXXXXXXX                              XXXXXXXXXXXXXXX                                                            XXXXXXXXXXXXXXX                                                                                                                                                                                                   XXXXXXXXXXXXXXX                                             XXXXXXXXXXXXXXX                              XXXXXXXXXXXXXXXXXXXXXXXXXXXXXX               XXXXXXXXXXXXXXX                                             XXXXXXXXXXXXXXX               ",
"XXXXXXXXXXXXXXX                                             XXXXXXXXXXXXXXX                                                                                                         XXXXXXXXXXXXXXX                                             XXXXXXXXXXXXXXX               XXXXXXXXXXXXXXX                                             XXXXXXXXXXXXXXX                              XXXXXXXXXXXXXXX                                                            XXXXXXXXXXXXXXX                                                                                                                                                                                                   XXXXXXXXXXXXXXX                                             XXXXXXXXXXXXXXX                              XXXXXXXXXXXXXXXXXXXXXXXXXXXXXX               XXXXXXXXXXXXXXX                                             XXXXXXXXXXXXXXX               ",
"XXXXXXXXXXXXXXX                                             XXXXXXXXXXXXXXX                                                                                                         XXXXXXXXXXXXXXX                                             XXXXXXXXXXXXXXX               XXXXXXXXXXXXXXX                                             XXXXXXXXXXXXXXX                              XXXXXXXXXXXXXXX                                                            XXXXXXXXXXXXXXX                                                                                                                                                                                                   XXXXXXXXXXXXXXX                                             XXXXXXXXXXXXXXX                              XXXXXXXXXXXXXXXXXXXXXXXXXXXXXX               XXXXXXXXXXXXXXX                                             XXXXXXXXXXXXXXX               ",
"XXXXXXXXXXXXXXX                                             XXXXXXXXXXXXXXX                                                                                                         XXXXXXXXXXXXXXX                                             XXXXXXXXXXXXXXX               XXXXXXXXXXXXXXX                                             XXXXXXXXXXXXXXX                              XXXXXXXXXXXXXXX                                                            XXXXXXXXXXXXXXX                                                                                                                                                                                                   XXXXXXXXXXXXXXX                                             XXXXXXXXXXXXXXX                              XXXXXXXXXXXXXXXXXXXXXXXXXXXXXX               XXXXXXXXXXXXXXX                                             XXXXXXXXXXXXXXX               ",
"XXXXXXXXXXXXXXX                                             XXXXXXXXXXXXXXX                                                                                                         XXXXXXXXXXXXXXX                                             XXXXXXXXXXXXXXX               XXXXXXXXXXXXXXX                                             XXXXXXXXXXXXXXX                              XXXXXXXXXXXXXXX                                                            XXXXXXXXXXXXXXX                                                                                                                                                                                                   XXXXXXXXXXXXXXX                                             XXXXXXXXXXXXXXX                              XXXXXXXXXXXXXXXXXXXXXXXXXXXXXX               XXXXXXXXXXXXXXX                                             XXXXXXXXXXXXXXX               ",
"XXXXXXXXXXXXXXX                                             XXXXXXXXXXXXXXX                                                                                                         XXXXXXXXXXXXXXX                                             XXXXXXXXXXXXXXX               XXXXXXXXXXXXXXX                                             XXXXXXXXXXXXXXX                              XXXXXXXXXXXXXXX                                                            XXXXXXXXXXXXXXX                                                                                                                                                                                                   XXXXXXXXXXXXXXX                                             XXXXXXXXXXXXXXX                              XXXXXXXXXXXXXXXXXXXXXXXXXXXXXX               XXXXXXXXXXXXXXX                                             XXXXXXXXXXXXXXX               ",
"XXXXXXXXXXXXXXX                                             XXXXXXXXXXXXXXX                                                                                                         XXXXXXXXXXXXXXX                                             XXXXXXXXXXXXXXX               XXXXXXXXXXXXXXX                                             XXXXXXXXXXXXXXX                              XXXXXXXXXXXXXXX                                                            XXXXXXXXXXXXXXX                                                                                                                                                                                                   XXXXXXXXXXXXXXX                                             XXXXXXXXXXXXXXX                              XXXXXXXXXXXXXXXXXXXXXXXXXXXXXX               XXXXXXXXXXXXXXX                                             XXXXXXXXXXXXXXX               ",
"XXXXXXXXXXXXXXX                                             XXXXXXXXXXXXXXX                                                                                                         XXXXXXXXXXXXXXX                                             XXXXXXXXXXXXXXX               XXXXXXXXXXXXXXX                                             XXXXXXXXXXXXXXX                              XXXXXXXXXXXXXXX                                                            XXXXXXXXXXXXXXX                                                                                                                                                                                                   XXXXXXXXXXXXXXX                                             XXXXXXXXXXXXXXX                              XXXXXXXXXXXXXXXXXXXXXXXXXXXXXX               XXXXXXXXXXXXXXX                                             XXXXXXXXXXXXXXX               ",
"XXXXXXXXXXXXXXX                                             XXXXXXXXXXXXXXX                                                                                                         XXXXXXXXXXXXXXX                                             XXXXXXXXXXXXXXX               XXXXXXXXXXXXXXX                                             XXXXXXXXXXXXXXX                              XXXXXXXXXXXXXXX                                                            XXXXXXXXXXXXXXX                                                                                                                                                                                                   XXXXXXXXXXXXXXX                                             XXXXXXXXXXXXXXX                              XXXXXXXXXXXXXXXXXXXXXXXXXXXXXX               XXXXXXXXXXXXXXX                                             XXXXXXXXXXXXXXX               ",
"XXXXXXXXXXXXXXX                                             XXXXXXXXXXXXXXX                                                                                                         XXXXXXXXXXXXXXX                                             XXXXXXXXXXXXXXX               XXXXXXXXXXXXXXX                                             XXXXXXXXXXXXXXX                              XXXXXXXXXXXXXXX                                                            XXXXXXXXXXXXXXX                                                                                                                                                                                                   XXXXXXXXXXXXXXX                                             XXXXXXXXXXXXXXX                              XXXXXXXXXXXXXXXXXXXXXXXXXXXXXX               XXXXXXXXXXXXXXX                                             XXXXXXXXXXXXXXX               ",
"XXXXXXXXXXXXXXX                                             XXXXXXXXXXXXXXX                                                                                                         XXXXXXXXXXXXXXX                                             XXXXXXXXXXXXXXX               XXXXXXXXXXXXXXX                                             XXXXXXXXXXXXXXX                              XXXXXXXXXXXXXXX                                                            XXXXXXXXXXXXXXX                                                                                                                                                                                                   XXXXXXXXXXXXXXX                                             XXXXXXXXXXXXXXX                              XXXXXXXXXXXXXXXXXXXXXXXXXXXXXX               XXXXXXXXXXXXXXX                                             XXXXXXXXXXXXXXX               ",
"XXXXXXXXXXXXXXX                                             XXXXXXXXXXXXXXX                                                                                                         XXXXXXXXXXXXXXX                                             XXXXXXXXXXXXXXX               XXXXXXXXXXXXXXX                                             XXXXXXXXXXXXXXX               XXXXXXXXXXXXXXXXXXXXXXXXXXXXXXXXXXXXXXXXXXXXXXXXXXXXXXXXXXXXXXXXXXXXXXXXXXX               XXXXXXXXXXXXXXXXXXXXXXXXXXXXXXXXXXXXXXXXXXXXXXXXXXXXXXXXXXXXXXXXXXXXXXXXXXX                                                                                                         XXXXXXXXXXXXXXXXXXXXXXXXXXXXXXXXXXXXXXXXXXXXXXXXXXXXXXXXXXXXXXXXXXXXXXXXXXX               XXXXXXXXXXXXXXX                                             XXXXXXXXXXXXXXX               XXXXXXXXXXXXXXXXXXXXXXXXXXXXXXXXXXXXXXXXXXXXXXXXXXXXXXXXXXXXXXXXXXXXXXXXXXX               ",
"XXXXXXXXXXXXXXX                                             XXXXXXXXXXXXXXX                                                                                                         XXXXXXXXXXXXXXX                                             XXXXXXXXXXXXXXX               XXXXXXXXXXXXXXX                                             XXXXXXXXXXXXXXX               XXXXXXXXXXXXXXXXXXXXXXXXXXXXXXXXXXXXXXXXXXXXXXXXXXXXXXXXXXXXXXXXXXXXXXXXXXX               XXXXXXXXXXXXXXXXXXXXXXXXXXXXXXXXXXXXXXXXXXXXXXXXXXXXXXXXXXXXXXXXXXXXXXXXXXX                                                                                                         XXXXXXXXXXXXXXXXXXXXXXXXXXXXXXXXXXXXXXXXXXXXXXXXXXXXXXXXXXXXXXXXXXXXXXXXXXX               XXXXXXXXXXXXXXX                                             XXXXXXXXXXXXXXX               XXXXXXXXXXXXXXXXXXXXXXXXXXXXXXXXXXXXXXXXXXXXXXXXXXXXXXXXXXXXXXXXXXXXXXXXXXX               ",
"XXXXXXXXXXXXXXX                                             XXXXXXXXXXXXXXX                                                                                                         XXXXXXXXXXXXXXX                                             XXXXXXXXXXXXXXX               XXXXXXXXXXXXXXX                                             XXXXXXXXXXXXXXX               XXXXXXXXXXXXXXXXXXXXXXXXXXXXXXXXXXXXXXXXXXXXXXXXXXXXXXXXXXXXXXXXXXXXXXXXXXX               XXXXXXXXXXXXXXXXXXXXXXXXXXXXXXXXXXXXXXXXXXXXXXXXXXXXXXXXXXXXXXXXXXXXXXXXXXX                                                                                                         XXXXXXXXXXXXXXXXXXXXXXXXXXXXXXXXXXXXXXXXXXXXXXXXXXXXXXXXXXXXXXXXXXXXXXXXXXX               XXXXXXXXXXXXXXX                                             XXXXXXXXXXXXXXX               XXXXXXXXXXXXXXXXXXXXXXXXXXXXXXXXXXXXXXXXXXXXXXXXXXXXXXXXXXXXXXXXXXXXXXXXXXX               ",
"XXXXXXXXXXXXXXX                                             XXXXXXXXXXXXXXX                                                                                                         XXXXXXXXXXXXXXX                                             XXXXXXXXXXXXXXX               XXXXXXXXXXXXXXX                                             XXXXXXXXXXXXXXX               XXXXXXXXXXXXXXXXXXXXXXXXXXXXXXXXXXXXXXXXXXXXXXXXXXXXXXXXXXXXXXXXXXXXXXXXXXX               XXXXXXXXXXXXXXXXXXXXXXXXXXXXXXXXXXXXXXXXXXXXXXXXXXXXXXXXXXXXXXXXXXXXXXXXXXX                                                                                                         XXXXXXXXXXXXXXXXXXXXXXXXXXXXXXXXXXXXXXXXXXXXXXXXXXXXXXXXXXXXXXXXXXXXXXXXXXX               XXXXXXXXXXXXXXX                                             XXXXXXXXXXXXXXX               XXXXXXXXXXXXXXXXXXXXXXXXXXXXXXXXXXXXXXXXXXXXXXXXXXXXXXXXXXXXXXXXXXXXXXXXXXX               ",
"XXXXXXXXXXXXXXX                                             XXXXXXXXXXXXXXX                                                                                                         XXXXXXXXXXXXXXX                                             XXXXXXXXXXXXXXX               XXXXXXXXXXXXXXX                                             XXXXXXXXXXXXXXX               XXXXXXXXXXXXXXXXXXXXXXXXXXXXXXXXXXXXXXXXXXXXXXXXXXXXXXXXXXXXXXXXXXXXXXXXXXX               XXXXXXXXXXXXXXXXXXXXXXXXXXXXXXXXXXXXXXXXXXXXXXXXXXXXXXXXXXXXXXXXXXXXXXXXXXX                                                                                                         XXXXXXXXXXXXXXXXXXXXXXXXXXXXXXXXXXXXXXXXXXXXXXXXXXXXXXXXXXXXXXXXXXXXXXXXXXX               XXXXXXXXXXXXXXX                                             XXXXXXXXXXXXXXX               XXXXXXXXXXXXXXXXXXXXXXXXXXXXXXXXXXXXXXXXXXXXXXXXXXXXXXXXXXXXXXXXXXXXXXXXXXX               ",
"XXXXXXXXXXXXXXX                                             XXXXXXXXXXXXXXX                                                                                                         XXXXXXXXXXXXXXX                                             XXXXXXXXXXXXXXX               XXXXXXXXXXXXXXX                                             XXXXXXXXXXXXXXX               XXXXXXXXXXXXXXXXXXXXXXXXXXXXXXXXXXXXXXXXXXXXXXXXXXXXXXXXXXXXXXXXXXXXXXXXXXX               XXXXXXXXXXXXXXXXXXXXXXXXXXXXXXXXXXXXXXXXXXXXXXXXXXXXXXXXXXXXXXXXXXXXXXXXXXX                                                                                                         XXXXXXXXXXXXXXXXXXXXXXXXXXXXXXXXXXXXXXXXXXXXXXXXXXXXXXXXXXXXXXXXXXXXXXXXXXX               XXXXXXXXXXXXXXX                                             XXXXXXXXXXXXXXX               XXXXXXXXXXXXXXXXXXXXXXXXXXXXXXXXXXXXXXXXXXXXXXXXXXXXXXXXXXXXXXXXXXXXXXXXXXX               ",
"XXXXXXXXXXXXXXX                                             XXXXXXXXXXXXXXX                                                                                                         XXXXXXXXXXXXXXX                                             XXXXXXXXXXXXXXX               XXXXXXXXXXXXXXX                                             XXXXXXXXXXXXXXX               XXXXXXXXXXXXXXXXXXXXXXXXXXXXXXXXXXXXXXXXXXXXXXXXXXXXXXXXXXXXXXXXXXXXXXXXXXX               XXXXXXXXXXXXXXXXXXXXXXXXXXXXXXXXXXXXXXXXXXXXXXXXXXXXXXXXXXXXXXXXXXXXXXXXXXX                                                                                                         XXXXXXXXXXXXXXXXXXXXXXXXXXXXXXXXXXXXXXXXXXXXXXXXXXXXXXXXXXXXXXXXXXXXXXXXXXX               XXXXXXXXXXXXXXX                                             XXXXXXXXXXXXXXX               XXXXXXXXXXXXXXXXXXXXXXXXXXXXXXXXXXXXXXXXXXXXXXXXXXXXXXXXXXXXXXXXXXXXXXXXXXX               ",
"XXXXXXXXXXXXXXX                                             XXXXXXXXXXXXXXX                                                                                                         XXXXXXXXXXXXXXX                                             XXXXXXXXXXXXXXX               XXXXXXXXXXXXXXX                                             XXXXXXXXXXXXXXX               XXXXXXXXXXXXXXXXXXXXXXXXXXXXXXXXXXXXXXXXXXXXXXXXXXXXXXXXXXXXXXXXXXXXXXXXXXX               XXXXXXXXXXXXXXXXXXXXXXXXXXXXXXXXXXXXXXXXXXXXXXXXXXXXXXXXXXXXXXXXXXXXXXXXXXX                                                                                                         XXXXXXXXXXXXXXXXXXXXXXXXXXXXXXXXXXXXXXXXXXXXXXXXXXXXXXXXXXXXXXXXXXXXXXXXXXX               XXXXXXXXXXXXXXX                                             XXXXXXXXXXXXXXX               XXXXXXXXXXXXXXXXXXXXXXXXXXXXXXXXXXXXXXXXXXXXXXXXXXXXXXXXXXXXXXXXXXXXXXXXXXX               ",
"XXXXXXXXXXXXXXX                                             XXXXXXXXXXXXXXX                                                                                                         XXXXXXXXXXXXXXX                                             XXXXXXXXXXXXXXX               XXXXXXXXXXXXXXX                                             XXXXXXXXXXXXXXX               XXXXXXXXXXXXXXXXXXXXXXXXXXXXXXXXXXXXXXXXXXXXXXXXXXXXXXXXXXXXXXXXXXXXXXXXXXX               XXXXXXXXXXXXXXXXXXXXXXXXXXXXXXXXXXXXXXXXXXXXXXXXXXXXXXXXXXXXXXXXXXXXXXXXXXX                                                                                                         XXXXXXXXXXXXXXXXXXXXXXXXXXXXXXXXXXXXXXXXXXXXXXXXXXXXXXXXXXXXXXXXXXXXXXXXXXX               XXXXXXXXXXXXXXX                                             XXXXXXXXXXXXXXX               XXXXXXXXXXXXXXXXXXXXXXXXXXXXXXXXXXXXXXXXXXXXXXXXXXXXXXXXXXXXXXXXXXXXXXXXXXX               ",
"XXXXXXXXXXXXXXX                                             XXXXXXXXXXXXXXX                                                                                                         XXXXXXXXXXXXXXX                                             XXXXXXXXXXXXXXX               XXXXXXXXXXXXXXX                                             XXXXXXXXXXXXXXX               XXXXXXXXXXXXXXXXXXXXXXXXXXXXXXXXXXXXXXXXXXXXXXXXXXXXXXXXXXXXXXXXXXXXXXXXXXX               XXXXXXXXXXXXXXXXXXXXXXXXXXXXXXXXXXXXXXXXXXXXXXXXXXXXXXXXXXXXXXXXXXXXXXXXXXX                                                                                                         XXXXXXXXXXXXXXXXXXXXXXXXXXXXXXXXXXXXXXXXXXXXXXXXXXXXXXXXXXXXXXXXXXXXXXXXXXX               XXXXXXXXXXXXXXX                                             XXXXXXXXXXXXXXX               XXXXXXXXXXXXXXXXXXXXXXXXXXXXXXXXXXXXXXXXXXXXXXXXXXXXXXXXXXXXXXXXXXXXXXXXXXX               ",
"XXXXXXXXXXXXXXX                                             XXXXXXXXXXXXXXX                                                                                                         XXXXXXXXXXXXXXX                                             XXXXXXXXXXXXXXX               XXXXXXXXXXXXXXX                                             XXXXXXXXXXXXXXX               XXXXXXXXXXXXXXXXXXXXXXXXXXXXXXXXXXXXXXXXXXXXXXXXXXXXXXXXXXXXXXXXXXXXXXXXXXX               XXXXXXXXXXXXXXXXXXXXXXXXXXXXXXXXXXXXXXXXXXXXXXXXXXXXXXXXXXXXXXXXXXXXXXXXXXX                                                                                                         XXXXXXXXXXXXXXXXXXXXXXXXXXXXXXXXXXXXXXXXXXXXXXXXXXXXXXXXXXXXXXXXXXXXXXXXXXX               XXXXXXXXXXXXXXX                                             XXXXXXXXXXXXXXX               XXXXXXXXXXXXXXXXXXXXXXXXXXXXXXXXXXXXXXXXXXXXXXXXXXXXXXXXXXXXXXXXXXXXXXXXXXX               ",
"XXXXXXXXXXXXXXX                                             XXXXXXXXXXXXXXX                                                                                                         XXXXXXXXXXXXXXX                                             XXXXXXXXXXXXXXX               XXXXXXXXXXXXXXX                                             XXXXXXXXXXXXXXX               XXXXXXXXXXXXXXXXXXXXXXXXXXXXXXXXXXXXXXXXXXXXXXXXXXXXXXXXXXXXXXXXXXXXXXXXXXX               XXXXXXXXXXXXXXXXXXXXXXXXXXXXXXXXXXXXXXXXXXXXXXXXXXXXXXXXXXXXXXXXXXXXXXXXXXX                                                                                                         XXXXXXXXXXXXXXXXXXXXXXXXXXXXXXXXXXXXXXXXXXXXXXXXXXXXXXXXXXXXXXXXXXXXXXXXXXX               XXXXXXXXXXXXXXX                                             XXXXXXXXXXXXXXX               XXXXXXXXXXXXXXXXXXXXXXXXXXXXXXXXXXXXXXXXXXXXXXXXXXXXXXXXXXXXXXXXXXXXXXXXXXX               ",
"XXXXXXXXXXXXXXX                                             XXXXXXXXXXXXXXX                                                                                                         XXXXXXXXXXXXXXX                                             XXXXXXXXXXXXXXX               XXXXXXXXXXXXXXX                                             XXXXXXXXXXXXXXX               XXXXXXXXXXXXXXXXXXXXXXXXXXXXXXXXXXXXXXXXXXXXXXXXXXXXXXXXXXXXXXXXXXXXXXXXXXX               XXXXXXXXXXXXXXXXXXXXXXXXXXXXXXXXXXXXXXXXXXXXXXXXXXXXXXXXXXXXXXXXXXXXXXXXXXX                                                                                                         XXXXXXXXXXXXXXXXXXXXXXXXXXXXXXXXXXXXXXXXXXXXXXXXXXXXXXXXXXXXXXXXXXXXXXXXXXX               XXXXXXXXXXXXXXX                                             XXXXXXXXXXXXXXX               XXXXXXXXXXXXXXXXXXXXXXXXXXXXXXXXXXXXXXXXXXXXXXXXXXXXXXXXXXXXXXXXXXXXXXXXXXX               ",
"XXXXXXXXXXXXXXX                                             XXXXXXXXXXXXXXX                                                                                                         XXXXXXXXXXXXXXX                                             XXXXXXXXXXXXXXX               XXXXXXXXXXXXXXX                                             XXXXXXXXXXXXXXX               XXXXXXXXXXXXXXXXXXXXXXXXXXXXXXXXXXXXXXXXXXXXXXXXXXXXXXXXXXXXXXXXXXXXXXXXXXX               XXXXXXXXXXXXXXXXXXXXXXXXXXXXXXXXXXXXXXXXXXXXXXXXXXXXXXXXXXXXXXXXXXXXXXXXXXX                                                                                                         XXXXXXXXXXXXXXXXXXXXXXXXXXXXXXXXXXXXXXXXXXXXXXXXXXXXXXXXXXXXXXXXXXXXXXXXXXX               XXXXXXXXXXXXXXX                                             XXXXXXXXXXXXXXX               XXXXXXXXXXXXXXXXXXXXXXXXXXXXXXXXXXXXXXXXXXXXXXXXXXXXXXXXXXXXXXXXXXXXXXXXXXX               ",
"XXXXXXXXXXXXXXX                                             XXXXXXXXXXXXXXX                                                                                                         XXXXXXXXXXXXXXX                                             XXXXXXXXXXXXXXX               XXXXXXXXXXXXXXX                                             XXXXXXXXXXXXXXX               XXXXXXXXXXXXXXXXXXXXXXXXXXXXXXXXXXXXXXXXXXXXXXXXXXXXXXXXXXXXXXXXXXXXXXXXXXX               XXXXXXXXXXXXXXXXXXXXXXXXXXXXXXXXXXXXXXXXXXXXXXXXXXXXXXXXXXXXXXXXXXXXXXXXXXX                                                                                                         XXXXXXXXXXXXXXXXXXXXXXXXXXXXXXXXXXXXXXXXXXXXXXXXXXXXXXXXXXXXXXXXXXXXXXXXXXX               XXXXXXXXXXXXXXX                                             XXXXXXXXXXXXXXX               XXXXXXXXXXXXXXXXXXXXXXXXXXXXXXXXXXXXXXXXXXXXXXXXXXXXXXXXXXXXXXXXXXXXXXXXXXX               ",
};