/* XPM */
static char * amazing_xpm[] = {
"240 25 2 1",
"  c #000000",
"X c #4682B4",
"     XXXXXXXXXXXXXXXXXXXX          XXXXXXXXXXXXXXX          XXXXX               XXXXX     XXXXX               XXXXX          XXXXXXXXXXXXXXX          XXXXX               XXXXX     XXXXXXXXXXXXXXX                    XXXXXXXXXXXXXXX          ",
"     XXXXXXXXXXXXXXXXXXXX          XXXXXXXXXXXXXXX          XXXXX               XXXXX     XXXXX               XXXXX          XXXXXXXXXXXXXXX          XXXXX               XXXXX     XXXXXXXXXXXXXXX                    XXXXXXXXXXXXXXX          ",
"     XXXXXXXXXXXXXXXXXXXX          XXXXXXXXXXXXXXX          XXXXX               XXXXX     XXXXX               XXXXX          XXXXXXXXXXXXXXX          XXXXX               XXXXX     XXXXXXXXXXXXXXX                    XXXXXXXXXXXXXXX          ",
"     XXXXXXXXXXXXXXXXXXXX          XXXXXXXXXXXXXXX          XXXXX               XXXXX     XXXXX               XXXXX          XXXXXXXXXXXXXXX          XXXXX               XXXXX     XXXXXXXXXXXXXXX                    XXXXXXXXXXXXXXX          ",
"     XXXXXXXXXXXXXXXXXXXX          XXXXXXXXXXXXXXX          XXXXX               XXXXX     XXXXX               XXXXX          XXXXXXXXXXXXXXX          XXXXX               XXXXX     XXXXXXXXXXXXXXX                    XXXXXXXXXXXXXXX          ",
"XXXXX                         XXXXX               XXXXX     XXXXXXXXXX     XXXXXXXXXX     XXXXXXXXXX     XXXXXXXXXX     XXXXX               XXXXX     XXXXXXXXXX          XXXXX     XXXXX          XXXXX          XXXXX                         ",
"XXXXX                         XXXXX               XXXXX     XXXXXXXXXX     XXXXXXXXXX     XXXXXXXXXX     XXXXXXXXXX     XXXXX               XXXXX     XXXXXXXXXX          XXXXX     XXXXX          XXXXX          XXXXX                         ",
"XXXXX                         XXXXX               XXXXX     XXXXXXXXXX     XXXXXXXXXX     XXXXXXXXXX     XXXXXXXXXX     XXXXX               XXXXX     XXXXXXXXXX          XXXXX     XXXXX          XXXXX          XXXXX                         ",
"XXXXX                         XXXXX               XXXXX     XXXXXXXXXX     XXXXXXXXXX     XXXXXXXXXX     XXXXXXXXXX     XXXXX               XXXXX     XXXXXXXXXX          XXXXX     XXXXX          XXXXX          XXXXX                         ",
"XXXXX                         XXXXX               XXXXX     XXXXXXXXXX     XXXXXXXXXX     XXXXXXXXXX     XXXXXXXXXX     XXXXX               XXXXX     XXXXXXXXXX          XXXXX     XXXXX          XXXXX          XXXXX                         ",
"XXXXX                         XXXXX               XXXXX     XXXXX     XXXXX     XXXXX     XXXXX     XXXXX     XXXXX     XXXXXXXXXXXXXXXXXXXXXXXXX     XXXXX     XXXXX     XXXXX     XXXXX               XXXXX          XXXXXXXXXXXXXXX          ",
"XXXXX                         XXXXX               XXXXX     XXXXX     XXXXX     XXXXX     XXXXX     XXXXX     XXXXX     XXXXXXXXXXXXXXXXXXXXXXXXX     XXXXX     XXXXX     XXXXX     XXXXX               XXXXX          XXXXXXXXXXXXXXX          ",
"XXXXX                         XXXXX               XXXXX     XXXXX     XXXXX     XXXXX     XXXXX     XXXXX     XXXXX     XXXXXXXXXXXXXXXXXXXXXXXXX     XXXXX     XXXXX     XXXXX     XXXXX               XXXXX          XXXXXXXXXXXXXXX          ",
"XXXXX                         XXXXX               XXXXX     XXXXX     XXXXX     XXXXX     XXXXX     XXXXX     XXXXX     XXXXXXXXXXXXXXXXXXXXXXXXX     XXXXX     XXXXX     XXXXX     XXXXX               XXXXX          XXXXXXXXXXXXXXX          ",
"XXXXX                         XXXXX               XXXXX     XXXXX     XXXXX     XXXXX     XXXXX     XXXXX     XXXXX     XXXXXXXXXXXXXXXXXXXXXXXXX     XXXXX     XXXXX     XXXXX     XXXXX               XXXXX          XXXXXXXXXXXXXXX          ",
"XXXXX                         XXXXX               XXXXX     XXXXX               XXXXX     XXXXX               XXXXX     XXXXX               XXXXX     XXXXX          XXXXXXXXXX     XXXXX          XXXXX                              XXXXX     ",
"XXXXX                         XXXXX               XXXXX     XXXXX               XXXXX     XXXXX               XXXXX     XXXXX               XXXXX     XXXXX          XXXXXXXXXX     XXXXX          XXXXX                              XXXXX     ",
"XXXXX                         XXXXX               XXXXX     XXXXX               XXXXX     XXXXX               XXXXX     XXXXX               XXXXX     XXXXX          XXXXXXXXXX     XXXXX          XXXXX                              XXXXX     ",
"XXXXX                         XXXXX               XXXXX     XXXXX               XXXXX     XXXXX               XXXXX     XXXXX               XXXXX     XXXXX          XXXXXXXXXX     XXXXX          XXXXX                              XXXXX     ",
"XXXXX                         XXXXX               XXXXX     XXXXX               XXXXX     XXXXX               XXXXX     XXXXX               XXXXX     XXXXX          XXXXXXXXXX     XXXXX          XXXXX                              XXXXX     ",
"     XXXXXXXXXXXXXXXXXXXX          XXXXXXXXXXXXXXX          XXXXX               XXXXX     XXXXX               XXXXX     XXXXX               XXXXX     XXXXX               XXXXX     XXXXXXXXXXXXXXX                    XXXXXXXXXXXXXXX          ",
"     XXXXXXXXXXXXXXXXXXXX          XXXXXXXXXXXXXXX          XXXXX               XXXXX     XXXXX               XXXXX     XXXXX               XXXXX     XXXXX               XXXXX     XXXXXXXXXXXXXXX                    XXXXXXXXXXXXXXX          ",
"     XXXXXXXXXXXXXXXXXXXX          XXXXXXXXXXXXXXX          XXXXX               XXXXX     XXXXX               XXXXX     XXXXX               XXXXX     XXXXX               XXXXX     XXXXXXXXXXXXXXX                    XXXXXXXXXXXXXXX          ",
"     XXXXXXXXXXXXXXXXXXXX          XXXXXXXXXXXXXXX          XXXXX               XXXXX     XXXXX               XXXXX     XXXXX               XXXXX     XXXXX               XXXXX     XXXXXXXXXXXXXXX                    XXXXXXXXXXXXXXX          ",
"     XXXXXXXXXXXXXXXXXXXX          XXXXXXXXXXXXXXX          XXXXX               XXXXX     XXXXX               XXXXX     XXXXX               XXXXX     XXXXX               XXXXX     XXXXXXXXXXXXXXX                    XXXXXXXXXXXXXXX          ",
};